src/assets/selectIconsSpells/speciale_9.svg

<svg xmlns="http://www.w3.org/2000/svg" viewBox="0 0 512 512"><path d="M0 0h512v512H0z"/><path fill="#fff" d="M237.688 20.25L18.344 288.344l174.625 63.094c-8.217 8.152-18.068 15.154-29.876 20.78L276.5 399.282c-10.966 11.894-24.456 22.08-41 30.22l125.563 12.406c-16.877 21.158-38.8 38.795-67.063 52.03l204.688-29.623L412.5 273.125c-1.632 34.214-5.993 66.51-14.688 95.813L320 270.03c-1.03 21.615-3.57 42.188-8.438 61.22l-80.843-72.47c-1.363 11.97-3.38 23.5-6.25 34.408l-45.94-28.657L496.69 20.25h-90.75l-284.72 250.844 158.313 87.03-211.655-76.78L318.5 20.25h-80.813z"/></svg>

<?xml version="1.0" encoding="UTF-8" standalone="no"?>
<!DOCTYPE svg PUBLIC "-//W3C//DTD SVG 1.1//EN" "http://www.w3.org/Graphics/SVG/1.1/DTD/svg11.dtd">
<svg width="100%" height="100%" viewBox="0 0 512 512" version="1.1" xmlns="http://www.w3.org/2000/svg" xmlns:xlink="http://www.w3.org/1999/xlink" xml:space="preserve" xmlns:serif="http://www.serif.com/" style="fill-rule:evenodd;clip-rule:evenodd;stroke-linejoin:round;stroke-miterlimit:2;">
    <rect x="0" y="0" width="512" height="512" style="fill-rule:nonzero;"/>
    <path d="M237.688,20.25L18.344,288.344L192.969,351.438C184.752,359.59 174.901,366.592 163.093,372.218L276.5,399.282C265.534,411.176 252.044,421.362 235.5,429.502L361.063,441.908C344.186,463.066 322.263,480.703 294,493.938L498.688,464.315L412.5,273.125C410.868,307.339 406.507,339.635 397.812,368.938L320,270.03C318.97,291.645 316.43,312.218 311.562,331.25L230.719,258.78C229.356,270.75 227.339,282.28 224.469,293.188L178.529,264.531L496.69,20.25L405.94,20.25L121.22,271.094L279.533,358.124L67.878,281.344L318.5,20.25L237.687,20.25L237.688,20.25Z" style="fill:rgb(223,130,188);fill-rule:nonzero;"/>
</svg>
